X:1
T:Masurka Nr. 17/II
C:traditionell
R:mazurka
A:Sand in Taufers, Suedtirol
%%textfont Helvetica-Narrow 10pt
%%begintext align
B:COMPA bd. 10, Volksmusik in suedtirol, taenze und spielstuecke aus der tonband-sammlung Dr Alfred Quellmalz (1940-42), Franz Kofler und Walter Deutsch, hrsg. Suedtiroler Kulturinstitut, Verlag Boehlau, Wien, Koeln, Weimar, 1999
N:tonart im buch: in Bb (1.  2. teil ) und Es (3.  4. teil) erster ton d''
N:im buch s. 228, nr. 119
N:im buch einstimmig
S:tonband-aufnahme B-355(9) 19/A08, vom 29.11.1940
S:ausfuehrende: Sander Boehmische (Sechser Musik)
S:besetzung: klarinette, fluegelhorn, tenorhorn, 2 posaunen, bass
%%endtext 
F:http://simonwascher.info/
Z:noten-transcription: Franz Kofler
%%endtext 
F:http://simonwascher.info/
Z:abc transcription: Simon Wascher
Q:1/4=120 %im buch
M:3/4
L:1/8
K:G %Transposed from Eb
|:\
B>c d3 g | f>e d3 e | d>c A2 c>e | ed B2 B2 |\
B>c d3 g | f>e d3 e | d>c Ac cf | g2 g2 z2 :|
%%vskip
|:\
g>f e3 f | e>d B>c d2 | f2 e>f e>f | e2 d>e d2 |\
g>f e3 f | e>d B>c d2 | f2 e>d c>A | G2 g2 z2 :|
%%wordsfont Times-Italic 11pt
W:aus Simon Waschers TradArchiv
